src/icons/svg/question-mark.svg

<svg width="24px" height="24px" viewBox="0 0 24 24" version="1.1" xmlns="http://www.w3.org/2000/svg">
    <rect id="矩形备份-2" fill="#D8D8D8" opacity="0" x="0" y="0" width="24" height="24"></rect>
    <rect id="矩形备份-6" fill="#F9F9F9" opacity="0" x="1" y="1" width="22" height="22"></rect>
    <path d="M12.0000002,21 C15.2153904,21 18.1865336,19.2846098 19.7942288,16.5 C21.4019239,13.7153903 21.4019239,10.2846097 19.7942288,7.5 C18.1865336,4.71539025 15.2153904,3 12.0000002,3 C7.02943729,3 3.00000019,7.02943729 3.00000019,12 C3.00000019,16.9705627 7.02943729,21 12.0000002,21 L12.0000002,21 Z M12,23 C5.925,23 1,18.075 1,12 C1,5.925 5.925,1 12,1 C18.075,1 23,5.925 23,12 C23,18.075 18.075,23 12,23 Z M11.5,16 L12.5,16 C12.7761424,16 13,16.2238576 13,16.5 L13,17.5 C13,17.7761424 12.7761424,18 12.5,18 L11.5,18 C11.2238576,18 11,17.7761424 11,17.5 L11,16.5 C11,16.2238576 11.2238576,16 11.5,16 Z M8.04999998,9.28199998 C8.06300002,9.17000001 8.07599999,9.07699999 8.08900002,9.00200002 C8.28400003,7.91699997 8.77800002,7.11899999 9.57000002,6.60799998 C10.19,6.203 10.953,6 11.858,6 C13.047,6 14.034,6.288 14.82,6.86400002 C15.607,7.43900001 16,8.29199998 16,9.42199999 C16,10.115 15.83,10.699 15.487,11.174 C15.287,11.461 14.903,11.829 14.335,12.277 L13.775,12.717 C13.47,12.957 13.268,13.237 13.168,13.557 C13.141,13.644 13.117,13.806 13.096,14.043 C13.07369,14.3014573 12.8574185,14.5 12.598,14.5 L11.478,14.5 C11.3373708,14.5 11.2032288,14.4408442 11.1084611,14.3369421 C11.0136933,14.2330401 10.9670621,14.0940328 10.98,13.954 C11.045,13.258 11.114,12.818 11.187,12.633 C11.324,12.289 11.677,11.893 12.245,11.445 L12.82,10.99 C13.01,10.846 13.986,10.159 13.986,9.54999999 C13.986,8.942 13.88,8.71799999 13.574,8.38399999 C13.269,8.051 12.581,7.94399999 11.96,7.94399999 C11.35,7.94399999 10.829,8.10499998 10.574,8.51599999 C10.456,8.70599998 10.359,8.909 10.29,9.11599997 C10.2579906,9.21635465 10.2335882,9.31897845 10.217,9.42300001 C10.1756134,9.66290741 9.96745103,9.83813538 9.72400002,9.83800002 L8.54700002,9.83800002 C8.40461544,9.83804159 8.26896668,9.77737682 8.17407564,9.67122103 C8.07918466,9.56506524 8.03405288,9.4234887 8.04999998,9.28199998 Z"
          id="形状" fill="#000000" fill-rule="nonzero"></path>
</svg>

<svg width="24" height="24" xmlns="http://www.w3.org/2000/svg"><path d="M12 21a9 9 0 1 0 0-18 9 9 0 0 0 0 18zm0 2C5.925 23 1 18.075 1 12S5.925 1 12 1s11 4.925 11 11-4.925 11-11 11zm-.5-7h1a.5.5 0 0 1 .5.5v1a.5.5 0 0 1-.5.5h-1a.5.5 0 0 1-.5-.5v-1a.5.5 0 0 1 .5-.5zM8.05 9.282a5.17 5.17 0 0 1 .039-.28c.195-1.085.689-1.883 1.481-2.394.62-.405 1.383-.608 2.288-.608 1.189 0 2.176.288 2.962.864.787.575 1.18 1.428 1.18 2.558 0 .693-.17 1.277-.513 1.752-.2.287-.584.655-1.152 1.103l-.56.44c-.305.24-.507.52-.607.84a2.742 2.742 0 0 0-.072.486.5.5 0 0 1-.498.457h-1.12a.5.5 0 0 1-.498-.546c.065-.696.134-1.136.207-1.321.137-.344.49-.74 1.058-1.188l.575-.455c.19-.144 1.166-.831 1.166-1.44 0-.608-.106-.832-.412-1.166-.305-.333-.993-.44-1.614-.44-.61 0-1.131.161-1.386.572-.118.19-.215.393-.284.6-.032.1-.056.203-.073.307a.5.5 0 0 1-.493.415H8.547a.5.5 0 0 1-.497-.556z" fill="currentColor"/></svg>
